!!!OTL: 1369. Furchtlos und treu bis in den Tod.
!!!ODT: 1892
!!!ARE: Europa, Mitteleuropa, Deutschland, Hessen, Oberhessen; Wetterau
!!!SCT: E1369
!!!TXL: @@DE
!!!YEM: Copyright 1995, estate of Helmut Schaffrath.
**kern	**text
*ICvox	*
*M4/4	*
*met(c)	*
*k[f#]	*
*G:	*
!LO:TX:a:t=Muthig.	!
!LO:TX:a:t=Neueres Soldatenlied aus Oberheſſen u. der Wetterau. 1892.	!
{8d	Friſch
8e	auf
8f#	ʒum
=1	=1
4g	Kampf,
4b	für's
8b	Va-
8b	-ter-
8a	-land
8b	ʒu
=2	=2
8ccL	ſtrei-
8aJ	.
4a	-ten,
8r}	.
{8d	friſch
8e	auf
8f#	ʒum
=3	=3
4g	Kampf,
4b	für's
8b	Va-
8b	-ter-
8a	-land
8g	ins
=4	=4
2a	Feld!
8r}	.
{8a	Fürs
8a	Va-
8b/	-ter-
=5	=5
4cc	-land
4dd	ſind
4ee	wir
4dd	ge-
=6	=6
8ddL	-bo-
8bJ	.
4b	-ren,
8r}	.
{8dd	dem
8ee	Kai-
8dd	-ſer
=7	=7
8ddL	Wil-
8ccJ	.
4cc	-helm
8d	rei-
8cc	-chen
8b	wir
8a	die
=8	=8
2g	Hand.
8r}	.
{8a	Fürs
8a	Va-
8b/	-ter-
=9	=9
4cc	-land
4dd	ſind
4ee	wir
4dd	ge-
=10	=10
8ddL	-bo-
8bJ	.
4b	-ren,
8r}	.
{8dd	dem
8ee	Kai-
8dd	-ſer
=11	=11
8ddL	Wil-
8ccJ	.
4cc	-helm
8d	rei-
8cc	-chen
8b	wir
8a	die
=12	=12
2g	Hand.
8r}	.
==	==
!!!AGN: Staende -, Soldaten -, Kriegs - Lied
!!!ONB: ESAC (Essen Associative Code) Database: ERK3
!!!AMT: simple quadruple
!!!AIN: vox
!!!EED: Helmut Schaffrath
!!!EEV: 1.0
!!!GTL: Staendelieder (Berufslieder). 1. Soldaten- und Kriegslieder. Soldatenlieder seit dem 30jaehr. Kriege.
!!!URL-scan: https://rosdok.uni-rostock.de/mcrviewer/recordIdentifier/rosdok_ppn745177999/iview2/phys_0244.iview2?x=-128.77276441889285&y=95.60315701004583&scale=0.5870222003877487&rotation=0&layout=singlePageLayout
!!!ENC: Anna Maria Matuszewska
!!!EEV: 2024/12/30
*-	*-
